svgs/solid/curling-stone.svg

<svg xmlns="http://www.w3.org/2000/svg" viewBox="0 0 576 512"><!-- Font Awesome Pro 6.0.0-alpha2 by @fontawesome - https://fontawesome.com License - https://fontawesome.com/license (Commercial License) --><path d="M480 224C480 188.652 451.346 160 416 160H224V128C224 110.326 238.326 96 256 96H400C408.836 96 416 88.836 416 80V48C416 39.162 408.836 32 400 32H256C202.98 32 160 74.98 160 128V160C124.654 160 96 188.652 96 224C42.98 224 0 266.98 0 320V336H576V320C576 266.98 533.02 224 480 224ZM0 384C0 437.02 42.98 480 96 480H480C533.02 480 576 437.02 576 384V368H0V384Z"/></svg>

<svg xmlns="http://www.w3.org/2000/svg" viewBox="0 0 576 512"><!--! Font Awesome Pro 6.3.0 by @fontawesome - https://fontawesome.com License - https://fontawesome.com/license (Commercial License) Copyright 2023 Fonticons, Inc. --><path d="M224 128c0-17.7 14.3-32 32-32H384c17.7 0 32-14.3 32-32s-14.3-32-32-32H256c-53 0-96 43-96 96v32c-35.3 0-64 28.7-64 64c-53 0-96 43-96 96v16H576V320c0-53-43-96-96-96c0-35.3-28.7-64-64-64H224V128zM576 368H0v16c0 53 43 96 96 96H480c53 0 96-43 96-96V368z"/></svg>
